icons/svg/announcement-muted_14.svg

<?xml version="1.0" encoding="UTF-8"?>
<svg width="14px" height="14px" viewBox="0 0 14 14" version="1.1" xmlns="http://www.w3.org/2000/svg" xmlns:xlink="http://www.w3.org/1999/xlink">
    <!-- Generator: Sketch 59.1 (86144) - https://sketch.com -->
    <title>meetings/announcement-muted_14</title>
    <desc>Created with Sketch.</desc>
    <g id="Icons-Webex" stroke="none" stroke-width="1" fill="none" fill-rule="evenodd">
        <g id="meetings/feedback-muted_14" fill="#171B1F">
            <g id="feedback-muted_14">
                <path d="M13,9.3628 C13,9.5548 12.912,9.7358 12.76,9.8568 C12.602,9.9808 12.397,10.0268 12.201,9.9818 L6.109,8.5978 L12.628,2.0788 C12.672,2.0998 12.721,2.1118 12.76,2.1418 C12.912,2.2628 13,2.4448 13,2.6358 L13,9.3628 Z M4.921,11.8298 C4.736,12.0858 4.294,12.0218 4.194,11.6948 L3.895,10.8128 L4.521,10.1858 L4.977,11.4628 C5.019,11.5888 4.998,11.7218 4.921,11.8298 L4.921,11.8298 Z M3.271,8.9788 L4.121,9.1718 L3.536,9.7578 L3.271,8.9788 Z M3,3.8988 L11.037,2.2558 L4.957,8.3368 L3,7.8918 L3,3.8988 Z M2,7.5828 C1.277,7.1988 1,6.4738 1,5.8878 C1,5.3008 1.28,4.5758 2,4.1948 L2,7.5828 Z M13.383,1.3608 C13.376,1.3548 13.368,1.3518 13.361,1.3458 L13.854,0.8538 C14.049,0.6578 14.049,0.3418 13.854,0.1468 C13.658,-0.0492 13.342,-0.0492 13.146,0.1468 L12.285,1.0078 C12.187,1.0118 12.089,1.0188 11.992,1.0408 L2.301,3.0208 C0.712,3.3848 0.001,4.7228 1.62630326e-19,5.8878 C1.62630326e-19,7.0058 0.663,8.2748 2.12,8.6998 L2.747,10.5458 L0.146,13.1468 C-0.049,13.3418 -0.049,13.6578 0.146,13.8538 C0.244,13.9508 0.372,13.9998 0.5,13.9998 C0.628,13.9998 0.756,13.9508 0.854,13.8538 L3.106,11.6008 L3.242,12.0018 C3.424,12.5978 3.965,12.9998 4.589,12.9998 C5.041,12.9998 5.468,12.7808 5.732,12.4138 C6,12.0428 6.07,11.5808 5.922,11.1358 L5.318,9.4438 L11.979,10.9568 C12.104,10.9848 12.229,10.9998 12.355,10.9998 C12.726,10.9998 13.086,10.8758 13.383,10.6388 C13.775,10.3268 14,9.8618 14,9.3628 L14,2.6358 C14,2.1368 13.775,1.6728 13.383,1.3608 L13.383,1.3608 Z" id="fill"></path>
            </g>
        </g>
    </g>
</svg>

<svg width="14" height="14" xmlns="http://www.w3.org/2000/svg"><path d="M13 9.363a.63.63 0 01-.24.494.664.664 0 01-.559.125L6.109 8.598l6.519-6.52c.044.022.093.034.132.064.152.12.24.303.24.494v6.727zM4.921 11.83c-.185.256-.627.192-.727-.135l-.299-.882.626-.627.456 1.277a.404.404 0 01-.056.367zm-1.65-2.851l.85.193-.585.586-.265-.78zM3 3.899l8.037-1.643-6.08 6.08L3 7.893V3.899zM2 7.583c-.723-.384-1-1.11-1-1.695 0-.587.28-1.312 1-1.693v3.388zM13.383 1.36c-.007-.006-.015-.01-.022-.015l.493-.492a.5.5 0 00-.708-.707l-.861.86a1.613 1.613 0 00-.293.034L2.301 3.02C.712 3.385.001 4.723 0 5.888 0 7.006.663 8.275 2.12 8.7l.627 1.846-2.601 2.6a.5.5 0 00.708.708L3.106 11.6l.136.4c.182.597.723.999 1.347.999a1.411 1.411 0 001.333-1.864l-.604-1.692 6.661 1.513a1.641 1.641 0 001.404-.318c.392-.312.617-.777.617-1.276V2.636c0-.5-.225-.963-.617-1.275z" fill="#171B1F" fill-rule="evenodd"/></svg>
